X:1
T:Title
%%score { ( 1 3 4 ) | 2 }
L:1/8
M:4/4
K:Ab
V:1 treble nm="Grand Piano"
V:3 treble 
V:4 treble 
V:2 bass 
V:1
 z4 z2[Q:1/4=100] [Cc]>[CB] | [CB]2 [CA]2 [CA]2 [CE]>[CF] | [B,DF]2 [B,DE]2 [B,DE]2 [B,DE]2 | %3
 [CA][DB] [Ec]2 [=DB]2 [DF]2 | A4 G2 c>B | [CB]2 [CA]2 [CA]2 [CE]>[CF] | %6
 [B,DF]2 [B,DE]2 [B,DE]2 [A,DE]2 | z2 A2 B4 |[M:3/4] [CA]6 |[M:1/4] [Ec]2 | %10
[M:4/4] [=Ec]3 [EB] [EG]2 [Ec]2 | c3 A F2 c2 | c2 e2 =d2 G2 | [Ec]6 [DB]>[Dc] | %14
 [CB]2 [CA]2 [CA]2 [CE]>[CF] | [B,DF]2 [B,DE]2 [B,DE]2 [A,CE]2 | z2 A2 B4 |[M:3/4] [A,CA]6 | %18
[M:1/4] c2 |[M:4/4] c3 A F2 A2 | G3 =E C2 C2 | F2 A2 c2 [Af]2 | %22
[M:9/8] [G=e]3- [Ge] [=Ec]2- [Ec] c2 |[M:4/4] c3 A F2 A2 | G3 =E C2 CD | E2 A2 B2 [Ge]2 | %26
[M:9/8] [Ae]3- [Ae] [Ec]2- [Ec][DB]>[Dc] |[M:4/4] [CB]2 [CA]2 [CA]2 [CE]>[CF] | %28
 [B,DF]2 [B,DE]2 [B,DE]2 [B,DE]2 | [CA][DB] [Ec]2 [=DB]2 [DF]2 | A4 G2 c>B | %31
 [CB]2 [CA]2 [CA]2 [CE]>[CF] | [B,DF]2 [B,DE]2 [B,DE]2 [A,DE]2 | z2 A2 B4 | %34
[M:7/4] [CA]6 z2 z2 z4 |] %35
V:2
 z4 z2 [A,,E,]>[A,,E,] | [A,,E,]2 [A,,E,]2 [A,,E,]2 [A,,A,]>[A,,A,] | G,,2 G,,2 G,,2 G,,2 | %3
 [A,,A,]2 [A,,A,]2 [B,,F,]2 [B,,B,]2 | [E,CE]4 [E,B,E]2 [E,G,D]>[E,G,D] | %5
 [A,,A,]2 [A,,E,]2 [A,,E,]2 [A,,A,]>[A,,A,] | G,,2 G,,2 G,,2 A,,2 | %7
 [D,A,D]2 .[F,A,C]2 [E,A,E]2 [E,G,]2 |[M:3/4] [A,,A,]6 |[M:1/4] [A,,A,]2 | %10
[M:4/4] [C,G,]3 [C,G,] [C,C]2 [C,G,]2 | [F,A,F]3 [F,DF] [F,A,]2[K:treble] [F,A,F]2 | %12
 [G,CE]2 [G,CE]2 [G,_CF]2 [G,=DF]2 | [C,C]6 [E,G,]>[E,G,] | %14
 [A,,A,]2 [A,,A,]2 [A,,E,]2 [A,,A,]>[A,,A,] | G,,2 G,,2 G,,2 A,,2 | %16
 [D,A,D]2 .[F,A,C]2 [E,A,E]2 [E,G,]2 |[M:3/4] A,,6 |[M:1/4] C2 |[M:4/4] C3 A, F,2 A,2 | %20
 G,3 =E, C,2 C,2 | F,2 [F,C]2 [F,A,F]2 [F,C]2 |[M:9/8] [C,C]3- [C,C] [C,C]2- [C,C] C2 | %23
[M:4/4] C3 A, F,2 A,2 | G,3 =E, C,2 C,D, | E,2 [E,C]2 [E,G,E]2 [E,B,]2 | %26
[M:9/8] [A,C]3- [A,C] [A,,A,]2- [A,,A,][E,G,]>[E,G,] | %27
[M:4/4] [A,,E,]2 [A,,E,]2 [A,,E,]2 [A,,A,]>[A,,A,] | G,,2 G,,2 G,,2 G,,2 | %29
 [A,,A,]2 [A,,A,]2 [B,,F,]2 [B,,B,]2 | [E,CE]4 [E,B,E]2 [E,G,D]>[E,G,D] | %31
 [A,,A,]2 [A,,E,]2 [A,,E,]2 [A,,A,]>[A,,A,] | G,,2 G,,2 G,,2 A,,2 | %33
 [D,A,D]2 .[F,A,C]2 [E,A,E]2 [E,G,]2 |[M:7/4] [A,,A,]6 z2 z2 z4 |] %35
V:3
 x8 | x8 | x8 | x8 | x8 | x8 | x8 | FG z =D z2 z A |[M:3/4] x6 |[M:1/4] x2 |[M:4/4] x8 | x8 | x8 | %13
 x8 | x8 | x8 | FG z =D z2 z A |[M:3/4] x6 |[M:1/4] x2 |[M:4/4] x8 | x8 | x8 |[M:9/8] x9 | %23
[M:4/4] x8 | x8 | x8 |[M:9/8] x9 |[M:4/4] x8 | x8 | x8 | x8 | x8 | x8 | FG z =D z2 z A | %34
[M:7/4] x14 |] %35
V:4
 x8 | x8 | x8 | x8 | x8 | x8 | x8 | z4 z2 _D2 |[M:3/4] x6 |[M:1/4] x2 |[M:4/4] x8 | x8 | x8 | x8 | %14
 x8 | x8 | z4 z2 _D2 |[M:3/4] x6 |[M:1/4] x2 |[M:4/4] x8 | x8 | x8 |[M:9/8] x9 |[M:4/4] x8 | x8 | %25
 x8 |[M:9/8] x9 |[M:4/4] x8 | x8 | x8 | x8 | x8 | x8 | z4 z2 _D2 |[M:7/4] x14 |] %35

